X: 251
T: 4. La Brancas
T: la Brancas
B: Robert Landrin "Potpourri fran\,cois des contre-danse ancienne tel quil se danse chez la Reine ..." 1760 p.25 #1 dance 8 #4
S: http://memory.loc.gov/cgi-bin/query/D?musdibib:2:./temp/~ammem_EbRS:
Z: 2014 John Chambers <jc:trillian.mit.edu>
N: Bar 10 has an extra 1/8; changed the rhythm to match bar 12.
M: 2/4
L: 1/8
K: Gdor
% - - - - - - - - - - - - - - - - - - - - - - - - -
D |\
GBAc | B2 AB/c/ | dGA^F | G/^F/G/A/ GD |\
GBAc | B2 AB/c/ | dGA^F | G3 :|
|: "2.F."B/c/ |\
ddc=B | c2 zA/B/ | ccBA | B2 zA/B/ |\
ccBA | B2AG | A2^F2 | G3 :|
% - - - - - - - - - - - - - - - - - - - - - - - - -

%%sep 1 1 500
%%sep 1 1 500
